!!!!SEGMENT: pl-kk--kk-i-263--002_anonim--alleluia-ave-maria.krn
!!!cenid: 16xx:780
!!!COM: Anonim
!!!COM-rismid: pe30004985
!!!CDT:
!!!CNT:
!!!OTL: Alleluia Ave Maria
!!!PDT:
!!!AGN: Sacred
!!!SMS-siglum: PL-Kk
!!!SMS-shelfmark: Kk.I.263
!!!SMS-shelfwork: 002 W
!!!SMS-variant:
!!!SMS-altvar:
!!!NIFC-rismid: 1001143734
!!!URL-scan: http://repozytorium.nifc.pl/skany/pl-kk-nut--i-263
!!!ONB-nifc: UWAGA: utwory w zbiorze: 1. Rorate caeli, 2. Alleluia Ave Maria
!!!key:
**kern	**text	**kern	**text	**kern	**text	**kern	**text	**kern	**text
*part5	*part5	*part4	*part4	*part3	*part3	*part2	*part2	*part1	*part1
*staff5	*staff5	*staff4	*staff4	*staff3	*staff3	*staff2	*staff2	*staff1	*staff1
*Iempty	*	*Iempty	*	*Itenor	*	*Ialto	*	*Ivox	*
*I"Baſso Ripieno.	*	*I"Baſso.	*	*I"Tenore in Alto.	*	*I"Alto.	*	*I"Canto.	*
*I'B R.	*	*I'B	*	*I'T	*	*I'A	*	*I'S	*
*clefF4	*	*clefF4	*	*clefC4	*	*clefC3	*	*clefC1	*
*k[]	*	*k[]	*	*k[]	*	*k[]	*	*k[]	*
*C:	*	*C:	*	*C:	*	*C:	*	*C:	*
*M3/2	*	*M3/2	*	*M3/2	*	*M3/2	*	*M3/2	*
=1	=1	=1	=1	=1	=1	=1	=1	=1	=1
*	*	*	*	*2\right	*	*2\right	*	*2\right	*
!LO:TX:t=pro Graduali	!	!	!	!	!	!	!	!	!
2C/	Al-	2C/	Al-	2e\	Al-	2g\	Al-	2cc\	Al-
*2\right	*	*2\right	*	*	*	*	*	*	*
2E\	-le-	2E\	-le-	2c\	-le-	2e\	-le-	2g\	-le-
2C/	-lu-	2C/	-lu-	2e\	-lu-	2g\	-lu-	2cc\	-lu-
=2	=2	=2	=2	=2	=2	=2	=2	=2	=2
!	!	!	!	!	!	!	!	!LO:TX:a:t=P:problem:♮ above	!
2.G\	-ia	2.G\	-ia	4d\	-ia	2.g\	-ia	1bn\,<	-ia
.	.	.	.	4c\	.	.	.	.	.
.	.	.	.	4B\	.	.	.	.	.
4F\	.	4F\	.	4A\	.	4d\	.	.	.
2E\	.	2E\	.	2G</	.	2e\	.	2b\	.
=3	=3	=3	=3	=3	=3	=3	=3	=3	=3
*	*ij	*	*ij	*	*ij	*	*ij	*	*ij
2C/	Al-	2C/	Al-	2c\	Al-	2g\	Al-	2ee\	Al-
2.D\	-le-	2.D/	-le-	2.A\	-le-	2g\	-le-	2.dd\	-le-
.	.	.	.	.	.	2f#X\	.	.	.
4D\	-lu-	4D/	-lu-	4A\	-lu-	.	.	4dd\	-lu-
=4	=4	=4	=4	=4	=4	=4	=4	=4	=4
1.GG/	-ia	1.GG/	-ia	1.B\	-ia	1.g\	-ia	1.dd\	-ia
*	*Xij	*	*Xij	*	*Xij	*	*Xij	*	*Xij
=5	=5	=5	=5	=5	=5	=5	=5	=5	=5
2D\	al-	2D\	al-	2d\	al-	2fn\	al-	2a\	al-
2F\	-le-	2F\	-le-	2d\	-le-	2a\	-le-	2a\	-le-
2D\	-lu-	2D\	-lu-	2d\	-lu-	2f\	-lu-	2a\	-lu-
=6	=6	=6	=6	=6	=6	=6	=6	=6	=6
2.A\	-ia	2.A\	-ia	2.c\	-ia	2e\	-ia	(2.a\	-ia
.	.	.	.	.	.	2.a\	.	.	.
4G\	.	4G\	.	4B\	.	.	.	4b\)	.
!	!	!	!	!LO:SIC:v:custos:A	!	!	!	!	!
2F\	.	2F\	.	2A/	.	.	.	2cc\	.
.	.	.	.	.	.	4g\	.	.	.
!LO:LB:g=original	!	!	!	!LO:LB:g=original	!	!LO:LB:g=original	!	!	!
=7	=7	=7	=7	=7	=7	=7	=7	=7	=7
*	*ij	*	*ij	*	*ij	*	*ij	*	*ij
2D\	al-	2D\	al-	2A/	al-	2f\	al-	2dd\	al-
2.E\	-le-	2.E\	-le-	2A/	-le-	2.e\	-le-	2.bn\	-le-
.	.	.	.	2G#X/	lu-	.	.	.	.
4E\	-lu-	4E\	-lu-	.	.	4e\	-lu-	4b\	-lu-
=8	=8	=8	=8	=8	=8	=8	=8	=8	=8
!LO:TX:t=P:problem:cezura na 1. linii	!	!LO:TX:t=P:problem:cezura na 1. linii	!	!LO:TX:t=P:problem:cezura na 2. linii	!	!LO:TX:t=P:problem:cezura na 3. kresce:global	!	!	!
2AA,</	-ia	2AA,</	-ia	1A\,<	-ia	1e\,<	-ia	1a\	-ia
*	*Xij	*	*Xij	*	*	*	*	*	*
2A\	al-	2A\	al-	.	.	.	.	.	.
*	*	*	*	*	*Xij	*	*Xij	*	*Xij
2F\	-le-	2F\	.	2c\	al-	2f\	al-	2a\	al-
=9	=9	=9	=9	=9	=9	=9	=9	=9	=9
1G\	-lu-	1G\	-le-	1c\	-le-	1d\	-le-	1g\	-le-
!LO:TX:t=P:problem:brak kreski	!	!	!	!LO:TX:t=P:problem:brak kreski	!	!LO:TX:t=P:problem:brak kreski	!	!	!
2GG/	-lu-	2GG/	-lu-	2B\	-lu-	2d\	-lu-	2g\	-lu-
!	!	!LO:LB:g=original	!	!	!	!	!	!	!
=10	=10	=10-	=10	=10	=10	=10	=10	=10	=10
0.C/;	-ia	0.C/;	-ia	0.c\;	-ia	0.e\;	-ia	0.g\	-ia
!	!	!	!	!	!	!	!	!LO:LB:g=original	!
=11||	=11||	=11||	=11||	=11||	=11||	=11||	=11||	=11||	=11||
*M3/2	*	*M3/2	*	*M3/2	*	*M3/2	*	*M3/2	*
2C/	A-	2C/	A-	2c\	A-	2e\	A-	2g/	A-
2C/	-ve	2C/	-ve	2c\	-ve	2e\	-ve	2g/	-ve
2C/	Ma-	2C/	Ma-	2c\	Ma-	2e\	Ma-	2g/	Ma-
=12	=12	=12	=12	=12	=12	=12	=12	=12	=12
2G\	-ri-	2G\	-ri-	2B\	-ri-	2d\	-ri-	2g/	-ri-
!LO:TX:t=P:problem:cezura na 4. linii	!	!	!	!LO:TX:t=P:problem:cezura na 4. linii	!	!	!	!	!
2G,\	-a	2G\	-a	2B,<\	-a	2d\	-a	2g,</	-a
*	*ij	*	*ij	*	*	*	*	*	*
!LO:TX:t=P:problem:brak kreski	!	!	!	!LO:SIC:v:s=2c	!	!	!	!	!
2C/	Ma-	2C/	Ma-	2d\	Ma-	2e\	Ma-	2g/	Ma-
=13	=13	=13	=13	=13	=13	=13	=13	=13	=13
1.D\	-ri-	1.D\	-ri-	1.A\	-ri-	1.d\	-ri-	1g\	-ri-
.	.	.	.	.	.	.	.	2f#X/	.
=14	=14	=14	=14	=14	=14	=14	=14	=14	=14
!LO:TX:t=P:problem:cezura na 1. linii	!	!LO:TX:t=P:problem:cezura na 1. linii	!	!LO:TX:t=P:problem:cezura na 2. linii	!	!	!	!LO:TX:t=P:problem:cezura na 3. kresce:global	!
2GG,</	-a	2GG,</	-a	2G,</	-a	2d,<\	-a	2g,<\	-a
*	*Xij	*	*Xij	*	*	*	*	*	*
2G\	a-	2G\	a-	2G/	a-	2d\	a-	2g\	a-
2G\	-ve	2G\	-ve	2G/	-ve	2d\	-ve	2bn\	-ve
!LO:LB:g=original	!	!	!	!	!	!	!	!	!
=15	=15	=15	=15	=15	=15	=15	=15	=15	=15
4F\	gra-	4F\	gra-	4A\	gra-	2.f\	gra-	2.cc\	gra-
4E\	.	4E\	.	4G\	.	.	.	.	.
4F\	.	4F\	.	4A\	.	.	.	.	.
4G\	.	4G\	.	4B\	.	4f\	-ti-	4b\	.
2A\	.	2A\	.	2c\	.	2e\	-a	2a\	.
=16	=16	=16	=16	=16	=16	=16	=16	=16	=16
*	*	*	*	*	*	*	*ij	*	*
2.G\	.	2.G\	.	2.B\	.	2.g\	gra-	2.dd\	.
4G\	-ti-	4G\	-ti-	4B\	-ti-	4G/	-ti-	4d/	-ti-
!	!	!	!	!LO:SIC:v:custos:G	!	!	!	!	!
2F\	-a	2F\	-a	2A/	-a	2A/	-a	2d/	-a
*	*	*	*	*	*	*	*Xij	*	*
!	!	!	!	!LO:LB:g=original	!	!	!	!	!
=17	=17	=17	=17	=17	=17	=17	=17	=17	=17
!	!	!	!	!	!	!LO:SIC:v:custos:c	!	!	!
1E\	ple-	1E\	ple-	1G/	ple-	1.B/	ple-	1e/	ple-
2D\	.	2D\	.	2F/	.	.	.	2f/	.
!	!	!	!	!	!	!LO:LB:g=original	!	!	!
=18	=18	=18	=18	=18	=18	=18	=18	=18	=18
!LO:TX:t=P:problem:cezura na 2. linii	!	!LO:TX:t=P:problem:cezura na 2. linii	!	!LO:TX:t=P:problem:cezura na 2. linii	!	!	!	!	!
2C,</	-na	2C,</	-na	2E,</	-na	2c,<\	-na	2g,<\	-na
2C/	a-	2C/	a-	2E/	a-	2c\	a-	2g\	a-
2C/	-ve	2C/	-ve	2E/	-ve	2c\	-ve	2g\	-ve
=19	=19	=19	=19	=19	=19	=19	=19	=19	=19
2.BB/	Do-	2.BB/	Do-	2.G/	Do-	2.d\	Do-	2.g\	Do-
4BB/	-mi-	4BB/	-mi-	4F/	-mi-	4d\	-mi-	4g\	-mi-
2C/	-n(us)	2C/	-n(us)	2E/	-n(us)	2c\	-n(us)	2g\	-n(us)
=20	=20	=20	=20	=20	=20	=20	=20	=20	=20
2F\	Te-	2F\	Te-	2F/	Te-	1c\	Te-	1a\	Te-
2G\	.	2G\	.	1D/	.	.	.	.	.
!	!	!LO:SIC:v:custos:C	!	!	!	!	!	!	!
2GG/	.	2GG/	.	.	.	2B/	.	2g\	.
!	!	!LO:LB:g=original	!	!	!	!	!	!	!
=21	=21	=21	=21	=21	=21	=21	=21	=21	=21
!LO:TX:t=P:problem:cezura na 2. linii	!	!LO:TX:t=P:problem:cezura na 2. linii	!	!LO:TX:t=P:problem:cezura na 1. linii	!	!	!	!	!
2C,</	-cum	2C,</	-cum	2E,</	-cum	2c,<\	-cum	2g,</	-cum
2C/	a-	2C/	a-	2c\	a-	2c\	a-	2g/	a-
2C/	-ve	2C/	-ve	2c\	-ve	2c\	-ve	2g/	-ve
!LO:LB:g=original	!	!	!	!	!	!	!	!LO:LB:g=original	!
=22	=22	=22	=22	=22	=22	=22	=22	=22	=22
2.G\	be-	2.G\	be-	2.B\	be-	2.d\	be-	2.g\	be-
4G\	-ne-	4G\	-ne-	4B\	-ne-	4d\	-ne-	4g\	-ne-
4F\	-di-	4F\	-di-	4A\	-di-	4d\	-di-	4a\	-di-
4F\	-cta	4F\	-cta	4A\	-cta	4d\	-cta	4a\	-cta
=23	=23	=23	=23	=23	=23	=23	=23	=23	=23
(4E\	Tu	(4E\	Tu	(4G/	Tu	2e\	Tu	2bn\	Tu
4D\)	.	4D\)	.	4F/)	.	.	.	.	.
(4E\	in	(4E\	in	(4G/	in	2e\	in	2b\	in
4C\)	.	4C\)	.	4E/)	.	.	.	.	.
2D\	mu-	2D\	mu-	4A\	mu-	2f\	mu-	2dd\	mu-
.	.	.	.	4B\	.	.	.	.	.
=24	=24	=24	=24	=24	=24	=24	=24	=24	=24
2C/	-li-	2C/	-li-	2c\	-li-	2e\	-li-	2g\	-li-
2G\	-e-	2G\	-e-	2c\	-e-	2.d\	-e-	2.g\	-e-
2GG/	ri-	2GG/	ri-	2B\	ri-	.	.	.	.
.	.	.	.	.	.	4d\	-ri-	4g\	-ri-
=25	=25	=25	=25	=25	=25	=25	=25	=25	=25
2C,</	-bus	2C/	-bus	2c\	-bus	2e,<\	-b(us)	2g\	-bus
2r	.	2r	.	2r	.	2r	.	2r	.
!	!	!	!	!LO:SIC:v:custos:e	!	!	!	!	!
2AA/	et	2AA/	et	2e\	et	2a\	et	2cc\	et
!	!	!	!	!LO:LB:g=original	!	!	!	!	!
=26	=26	=26	=26	=26	=26	=26	=26	=26	=26
2.AA/	be-	2.AA/	be-	2.e\	be-	2.a\	be-	2.cc\	be-
4AA/	-ne-	4AA/	-ne-	4e\	-ne-	4a\	-ne-	4cc\	-ne-
4BB/	-dic-	4BB/	-dic-	4d\	-dic-	4g\	-dic-	4bn\	-dic-
4BB/	-t(us)	4BB/	-t(us)	4d\	-t(us)	4g\	-t(us)	4b\	-t(us)
=27	=27	=27	=27	=27	=27	=27	=27	=27	=27
1C/	Fru-	1C/	Fru-	(4c\	Fru-	1e\	Fru-	(4a\	Fru-
.	.	.	.	4B\)	.	.	.	4g\	.
.	.	.	.	(4c\	.	.	.	4a\)	.
!	!	!	!	!	!	!	!	!LO:SIC:v:s=4f#	!
.	.	.	.	4A\)	.	.	.	4f/	.
!	!	!	!	!	!	!LO:SIC:v:custos:e	!	!	!
2E\	ct(us)	2E\	ct(us)	2B\	ct(us)	2e\	ct(us)	2g/	ctus
!	!	!	!	!	!	!LO:LB:g=original	!	!	!
=28	=28	=28	=28	=28	=28	=28	=28	=28	=28
2C/	Ven-	2C/	Ven-	2c\	Ven-	2e\	Ven-	2a\	Ven-
!	!	!	!	!LO:TX:t=P:problem:cezura na 3. linii	!	!	!	!	!
2D\	-tris	2D\	-tris	2B,<\	-tris	2f\	-tris	2a\	-tris
!	!	!	!	!	!	!LO:SIC:v:s=2e	!	!	!
2E\	Tu-	2E\	Tu-	2B\	Tu-	2f\	Tu-	2g#X\	Tu-
!LO:LB:g=original	!	!	!	!	!	!	!	!	!
=29	=29	=29	=29	=29	=29	=29	=29	=29	=29
!LO:TX:t=P:problem:cezura na 1. linii	!	!LO:TX:t=P:problem:cezura na 1. linii	!	!LO:TX:t=P:problem:cezura na 3. linii	!	!	!	!	!
2AA,</	-i	2AA,</	-i	2A,<\	-i	2e,\	-i	2a,<\	-i
2A\	be-	2A\	be-	2c\	be-	2e\	be-	2a\	be-
2G\	-ne-	2G\	-ne-	2d\	-ne-	2g\	-ne-	2bn\	-ne-
!	!	!LO:LB:g=original	!	!	!	!	!	!	!
=30	=30	=30	=30	=30	=30	=30	=30	=30	=30
2.G\	-dic-	2.G\	-dic-	2.d\	-dic-	2.g\	-dic-	2.b\	-dic-
4G\	-tus	4GG/	-tus	4d\	-t(us)	4g\	-t(us)	4b\	-tus
4A\	Fruc-	4AA/	Fruc-	4c\	Fruc-	4e\	Fruc-	4cc\	Fruc-
4A\	-t(us)	4AA/	-t(us)	4c\	-t(us)	4e\	-t(us)	4cc\	-t(us)
!	!	!	!	!	!	!	!	!LO:LB:g=original	!
=31	=31	=31	=31	=31	=31	=31	=31	=31	=31
2Bn\	Ven-	1BBn/	Ven-	1B\	.	1d\	Ven-	1dd\	Ven-
2BB/	.	.	.	.	.	.	.	.	.
2C/	tris	2C/	tris	2G/	Ven-	2e\	tris	4cc\	.
.	.	.	.	.	.	.	.	4b\	-tris
=32	=32	=32	=32	=32	=32	=32	=32	=32	=32
!LO:TX:t=P:problem:brak kreski	!	!LO:TX:t=P:problem:brak kreski	!	!	!	!	!	!	!
1.D\	Tu-	1.D\	Tu-	1G/	tris	1.d\	Tu-	1.a\	Tu-
!	!	!	!	!LO:TX:t=P:problem:brak kreski	!	!	!	!	!
.	.	.	.	2F#X/	Tu-	.	.	.	.
=33-	=33	=33-	=33	=33-	=33	=33	=33	=33	=33
0.GG/;	-i.	0.GG/;	-i.	0.G/;	-i.	1.d\	-i.	0.b\;	-i.
.	.	.	.	.	.	2ryy	.	.	.
.	.	.	.	.	.	1ryy	.	.	.
!LO:TX:t=alleluia da Capo.	!	!LO:TX:t=alleluia da Capo.	!	!LO:TX:t=alleluia da Capo.	!	!LO:TX:t=alleluia da Capo.	!	!LO:TX:t=alleluia da Capo.	!
==	==	==	==	==	==	==	==	==	==
*-	*-	*-	*-	*-	*-	*-	*-	*-	*-
!!!system-decoration: [(s1,s2,s3,s4,s5)]
!!!RDF**kern: > = above
!!!RDF**kern: < = below
!!!EED: Leszek Kubiak
!!!EST: 2021-03-01
!!!AIN: 1 alto 2 empty 1 tenor 1 vox
!!!ENC: Kamil Watkowski
!!!END: 2021-02-15
